X:92
T:Andy McGann's
R:Reel
S:Feely Kearny, Tyrone (fiddle)
D:Session tape - Buncrana 1979
H:A version very much associated with Feely Kearney,
H:especially the long 'Bb' in the first part. The second
H:contains a few bars from The Steeplechase and is clearly
H:intended as they all do it both times through.
Z:Bernie Stocks
M:4/4
K:C
^fg || ec~c2 Gcec | AF~F2 CFAF | BG~G2 BcdB | cBce ag^fg | ec~c2 Gcec |
AF~F2 CFAF | BG~G2 BcdB | c2cB c2gf | ec~c2 Gcec | AF~F2 CFAF |
BG~G2 BcdB | cBce ag^fg | ec~c2 _B3c | AF~F2 CFAF | BG~G2 BcdB |
c2cB c2AB || c2gc acgc | c2gc BcdB | c2gc acgc | BG~G2 BcdB |
c2gc acgc | c2gc BcdB | cg~g2 eg~g2 | ag^fa g4 | c2gc acgc | c2gc BcdB |
c2GE CEGc | Addc dfed |c2gc acgc | c2gc BcdB | cg~g2 eg~g2 | ag^fa g4 ||
<end>
<start>
